Sweet-Rainbow/icons/electron.svg

<?xml version="1.0" encoding="UTF-8" standalone="no"?>
<!-- Generator: Gravit.io -->

<svg
   xmlns:dc="http://purl.org/dc/elements/1.1/"
   xmlns:cc="http://creativecommons.org/ns#"
   xmlns:rdf="http://www.w3.org/1999/02/22-rdf-syntax-ns#"
   xmlns:svg="http://www.w3.org/2000/svg"
   xmlns="http://www.w3.org/2000/svg"
   xmlns:sodipodi="http://sodipodi.sourceforge.net/DTD/sodipodi-0.dtd"
   xmlns:inkscape="http://www.inkscape.org/namespaces/inkscape"
   style="isolation:isolate"
   viewBox="0 0 36 36"
   width="48"
   height="48"
   version="1.1"
   id="svg9"
   sodipodi:docname="electron.svg"
   inkscape:version="0.92.4 (5da689c313, 2019-01-14)">
  <metadata
     id="metadata15">
    <rdf:RDF>
      <cc:Work
         rdf:about="">
        <dc:format>image/svg+xml</dc:format>
        <dc:type
           rdf:resource="http://purl.org/dc/dcmitype/StillImage" />
        <dc:title></dc:title>
      </cc:Work>
    </rdf:RDF>
  </metadata>
  <defs
     id="defs13" />
  <sodipodi:namedview
     pagecolor="#ffffff"
     bordercolor="#666666"
     borderopacity="1"
     objecttolerance="10"
     gridtolerance="10"
     guidetolerance="10"
     inkscape:pageopacity="0"
     inkscape:pageshadow="2"
     inkscape:window-width="640"
     inkscape:window-height="480"
     id="namedview11"
     showgrid="false"
     inkscape:zoom="5.4444145"
     inkscape:cx="136.59646"
     inkscape:cy="172.59666"
     inkscape:current-layer="svg9" />
  <linearGradient
     id="_lgradient_2"
     x1="0"
     y1="0.5"
     x2="1"
     y2="0.5"
     gradientTransform="scale(258.895)"
     gradientUnits="userSpaceOnUse">
    <stop
       offset="0%"
       stop-opacity="1"
       style="stop-color:rgb(24,208,173)"
       id="stop2" />
    <stop
       offset="90.44964029999998%"
       stop-opacity="1"
       style="stop-color:rgb(7,195,242)"
       id="stop4" />
  </linearGradient>
  <g
     id="g826"
     transform="scale(0.13905251)">
    <path
       id="path7"
       d="m 129.15,43.219 c 3.423,0.002 6.262,2.649 6.504,6.064 -0.04,0.265 -0.046,0.533 -0.02,0.8 -0.191,3.446 -3.032,6.148 -6.484,6.163 -1.73,0 -3.389,-0.687 -4.613,-1.91 -1.223,-1.224 -1.91,-2.883 -1.91,-4.613 0.011,-3.595 2.928,-6.504 6.523,-6.504 z m 47.827,29.116 c -1.937,-0.053 -3.875,0.014 -5.803,0.201 -1.163,0.117 -2.174,0.845 -2.653,1.911 -0.48,1.065 -0.354,2.306 0.33,3.253 0.684,0.948 1.821,1.458 2.983,1.339 13.608,-1.401 24.154,3.902 28.016,13.408 3.842,9.485 1.301,24.433 -14.548,43.164 -0.808,0.883 -1.068,2.138 -0.677,3.269 0.391,1.131 1.371,1.957 2.552,2.152 1.181,0.195 2.374,-0.273 3.107,-1.219 16.73,-19.771 20.692,-37.261 15.609,-49.828 -4.482,-11.006 -15.689,-17.329 -28.936,-17.67 z m -90.951,0.201 c -15.869,0.28 -26.715,5.203 -32.658,13.247 -7.905,10.726 -6.044,25.815 2.661,39.362 1.009,1.422 2.957,1.8 4.424,0.858 1.466,-0.943 1.933,-2.871 1.059,-4.38 -7.764,-12.067 -8.765,-24.013 -2.901,-31.978 5.883,-7.964 19.591,-13.127 43.964,-9.325 1.169,0.217 2.362,-0.219 3.116,-1.137 0.754,-0.919 0.949,-2.174 0.509,-3.278 -0.44,-1.104 -1.445,-1.881 -2.624,-2.029 -5.801,-0.942 -11.673,-1.384 -17.55,-1.32 z m 43.124,42.363 c -3.462,-0.005 -6.784,1.368 -9.232,3.816 -2.448,2.448 -3.82,5.77 -3.815,9.232 0.005,3.455 1.383,6.766 3.83,9.206 2.446,2.439 5.762,3.806 9.217,3.801 7.179,-0.011 12.996,-5.828 13.007,-13.007 0.006,-3.455 -1.362,-6.771 -3.801,-9.218 -2.439,-2.447 -5.751,-3.824 -9.206,-3.83 z m -71.7,52.15 c 3.595,0 6.513,2.908 6.524,6.503 0,1.73 -0.688,3.39 -1.911,4.613 -1.224,1.224 -2.883,1.911 -4.613,1.911 -3.595,-0.011 -6.504,-2.929 -6.504,-6.524 0.011,-3.587 2.917,-6.492 6.504,-6.503 z m 143.38,0 c 3.588,0.011 6.493,2.916 6.504,6.503 0,3.595 -2.908,6.513 -6.504,6.524 -1.73,0 -3.389,-0.687 -4.613,-1.911 -1.223,-1.223 -1.91,-2.883 -1.91,-4.613 0.011,-3.595 2.928,-6.503 6.523,-6.503 z m -107.82,9.705 c -0.976,0.081 -1.863,0.596 -2.418,1.403 -0.554,0.806 -0.717,1.82 -0.444,2.759 0,0 2.542,9.366 8.545,18.811 6.003,9.425 15.929,19.431 30.457,19.431 19.131,0 30.217,-21.212 30.217,-21.212 0.605,-1.022 0.608,-2.292 0.006,-3.316 -0.602,-1.023 -1.713,-1.639 -2.9,-1.607 -1.187,0.032 -2.263,0.707 -2.809,1.761 0,0 -10.506,17.87 -24.534,17.87 -11.526,0 -19.531,-7.924 -24.934,-16.409 -5.403,-8.485 -7.764,-17.03 -7.764,-17.03 -0.359,-1.418 -1.619,-2.425 -3.082,-2.461 -0.113,-0.006 -0.227,-0.006 -0.34,0 z M 129.15,36.695 c -3.462,-0.005 -6.784,1.368 -9.232,3.816 -2.448,2.448 -3.82,5.77 -3.815,9.232 0.005,3.455 1.383,6.766 3.83,9.206 2.446,2.439 5.762,3.806 9.217,3.801 5.161,-0.007 9.83,-3.06 11.907,-7.784 15.649,11.166 23.453,32.878 26.014,55.931 2.802,24.814 -0.52,50.909 -5.182,64.877 -0.568,1.712 0.359,3.561 2.071,4.13 1.713,0.568 3.562,-0.358 4.132,-2.069 5.103,-15.349 8.365,-41.804 5.463,-67.678 C 170.734,84.943 161.949,60.009 142.017,47.842 141.076,41.458 135.603,36.726 129.15,36.715 Z m 22.353,37.782 c -0.134,-0.008 -0.267,-0.008 -0.4,0 -0.184,0.024 -0.364,0.065 -0.541,0.12 -25.523,6.128 -49.321,17.972 -69.599,34.639 -19.211,16.009 -32.818,35.56 -33.218,55.651 -2.134,2.383 -3.316,5.467 -3.322,8.665 0,3.459 1.375,6.775 3.822,9.219 2.448,2.444 5.766,3.814 9.225,3.809 7.187,-0.011 13.007,-5.841 13.007,-13.028 0.006,-3.455 -1.362,-6.77 -3.801,-9.217 -2.44,-2.447 -5.751,-3.825 -9.206,-3.83 -0.956,0.002 -1.909,0.109 -2.842,0.32 2.022,-15.929 13.608,-32.518 30.497,-46.606 19.517,-15.993 42.391,-27.376 66.918,-33.299 1.596,-0.351 2.687,-1.829 2.55,-3.458 -0.137,-1.629 -1.458,-2.905 -3.09,-2.985 z m -80.986,61.894 c -1.327,-0.02 -2.534,0.766 -3.052,1.987 -0.519,1.222 -0.246,2.636 0.691,3.577 19.931,20.611 44.745,35.82 68.078,43.744 22.853,7.764 44.465,8.685 58.893,-0.4 1.776,0.867 3.727,1.319 5.703,1.321 3.459,0 6.776,-1.376 9.219,-3.823 2.444,-2.447 3.814,-5.766 3.809,-9.225 0,-3.455 -1.373,-6.768 -3.816,-9.211 -2.443,-2.443 -5.757,-3.816 -9.212,-3.816 -3.458,-0.005 -6.777,1.365 -9.224,3.809 -2.448,2.443 -3.823,5.76 -3.823,9.218 0.008,2.541 0.76,5.025 2.161,7.144 -11.906,6.324 -30.837,5.864 -51.629,-1.2 -22.252,-7.545 -46.306,-22.293 -65.476,-42.084 -0.601,-0.647 -1.439,-1.022 -2.322,-1.041 z M 128.936,21.039 c 28.618,0 56.063,11.368 76.299,31.604 20.236,20.236 31.605,47.682 31.605,76.3 0,28.618 -11.369,56.064 -31.605,76.3 -20.236,20.236 -47.681,31.605 -76.299,31.605 -28.618,0 -56.064,-11.369 -76.3,-31.605 -20.236,-20.236 -31.605,-47.682 -31.605,-76.3 0,-28.618 11.369,-56.064 31.605,-76.3 20.236,-20.236 47.682,-31.604 76.3,-31.604 z M 129.447,0 C 95.116,0 62.19,13.638 37.914,37.914 13.638,62.19 0,95.116 0,129.447 c 0,34.332 13.638,67.257 37.914,91.533 24.276,24.276 57.202,37.915 91.533,37.915 34.332,0 67.257,-13.639 91.533,-37.915 24.276,-24.276 37.915,-57.201 37.915,-91.533 0,-34.331 -13.639,-67.257 -37.915,-91.533 C 196.704,13.638 163.779,0 129.447,0 Z"
       style="fill:url(#_lgradient_2);fill-rule:evenodd"
       inkscape:connector-curvature="0" />
  </g>
</svg>

<?xml version="1.0" encoding="UTF-8" standalone="no"?><!-- Generator: Gravit.io --><svg xmlns="http://www.w3.org/2000/svg" xmlns:xlink="http://www.w3.org/1999/xlink" style="isolation:isolate" viewBox="0 0 258.895 258.895" width="258.895pt" height="258.895pt"><linearGradient id="_lgradient_2" x1="0" y1="0.5" x2="1" y2="0.5" gradientTransform="matrix(258.895,0,0,258.895,0,0)" gradientUnits="userSpaceOnUse"><stop offset="0%" stop-opacity="1" style="stop-color:rgb(24,208,173)"/><stop offset="90.44964029999998%" stop-opacity="1" style="stop-color:rgb(7,195,242)"/></linearGradient><path d=" M 129.15 43.219 C 132.573 43.221 135.412 45.868 135.654 49.283 C 135.614 49.548 135.608 49.816 135.634 50.083 C 135.443 53.529 132.602 56.231 129.15 56.246 C 127.42 56.246 125.761 55.559 124.537 54.336 C 123.314 53.112 122.627 51.453 122.627 49.723 C 122.638 46.128 125.555 43.219 129.15 43.219 L 129.15 43.219 L 129.15 43.219 Z  M 176.977 72.335 C 175.04 72.282 173.102 72.349 171.174 72.536 C 170.011 72.653 169 73.381 168.521 74.447 C 168.041 75.512 168.167 76.753 168.851 77.7 C 169.535 78.648 170.672 79.158 171.834 79.039 C 185.442 77.638 195.988 82.941 199.85 92.447 C 203.692 101.932 201.151 116.88 185.302 135.611 C 184.494 136.494 184.234 137.749 184.625 138.88 C 185.016 140.011 185.996 140.837 187.177 141.032 C 188.358 141.227 189.551 140.759 190.284 139.813 C 207.014 120.042 210.976 102.552 205.893 89.985 C 201.411 78.979 190.204 72.656 176.957 72.315 L 176.977 72.335 L 176.977 72.335 Z  M 86.026 72.536 C 70.157 72.816 59.311 77.739 53.368 85.783 C 45.463 96.509 47.324 111.598 56.029 125.145 C 57.038 126.567 58.986 126.945 60.453 126.003 C 61.919 125.06 62.386 123.132 61.512 121.623 C 53.748 109.556 52.747 97.61 58.611 89.645 C 64.494 81.681 78.202 76.518 102.575 80.32 C 103.744 80.537 104.937 80.101 105.691 79.183 C 106.445 78.264 106.64 77.009 106.2 75.905 C 105.76 74.801 104.755 74.024 103.576 73.876 C 97.775 72.934 91.903 72.492 86.026 72.556 L 86.026 72.536 L 86.026 72.536 Z  M 129.15 114.899 C 125.688 114.894 122.366 116.267 119.918 118.715 C 117.47 121.163 116.098 124.485 116.103 127.947 C 116.108 131.402 117.486 134.713 119.933 137.153 C 122.379 139.592 125.695 140.959 129.15 140.954 C 136.329 140.943 142.146 135.126 142.157 127.947 C 142.163 124.492 140.795 121.176 138.356 118.729 C 135.917 116.282 132.605 114.905 129.15 114.899 L 129.15 114.899 L 129.15 114.899 Z  M 57.45 167.049 C 61.045 167.049 63.963 169.957 63.974 173.552 C 63.974 175.282 63.286 176.942 62.063 178.165 C 60.839 179.389 59.18 180.076 57.45 180.076 C 53.855 180.065 50.946 177.147 50.946 173.552 C 50.957 169.965 53.863 167.06 57.45 167.049 L 57.45 167.049 L 57.45 167.049 Z  M 200.83 167.049 C 204.418 167.06 207.323 169.965 207.334 173.552 C 207.334 177.147 204.426 180.065 200.83 180.076 C 199.1 180.076 197.441 179.389 196.217 178.165 C 194.994 176.942 194.307 175.282 194.307 173.552 C 194.318 169.957 197.235 167.049 200.83 167.049 L 200.83 167.049 L 200.83 167.049 Z  M 93.01 176.754 C 92.034 176.835 91.147 177.35 90.592 178.157 C 90.038 178.963 89.875 179.977 90.148 180.916 C 90.148 180.916 92.69 190.282 98.693 199.727 C 104.696 209.152 114.622 219.158 129.15 219.158 C 148.281 219.158 159.367 197.946 159.367 197.946 C 159.972 196.924 159.975 195.654 159.373 194.63 C 158.771 193.607 157.66 192.991 156.473 193.023 C 155.286 193.055 154.21 193.73 153.664 194.784 C 153.664 194.784 143.158 212.654 129.13 212.654 C 117.604 212.654 109.599 204.73 104.196 196.245 C 98.793 187.76 96.432 179.215 96.432 179.215 C 96.073 177.797 94.813 176.79 93.35 176.754 C 93.237 176.748 93.123 176.748 93.01 176.754 L 93.01 176.754 L 93.01 176.754 Z  M 129.15 36.695 C 125.688 36.69 122.366 38.063 119.918 40.511 C 117.47 42.959 116.098 46.281 116.103 49.743 C 116.108 53.198 117.486 56.509 119.933 58.949 C 122.379 61.388 125.695 62.755 129.15 62.75 C 134.311 62.743 138.98 59.69 141.057 54.966 C 156.706 66.132 164.51 87.844 167.071 110.897 C 169.873 135.711 166.551 161.806 161.889 175.774 C 161.321 177.486 162.248 179.335 163.96 179.904 C 165.673 180.472 167.522 179.546 168.092 177.835 C 173.195 162.486 176.457 136.031 173.555 110.157 C 170.734 84.943 161.949 60.009 142.017 47.842 C 141.076 41.458 135.603 36.726 129.15 36.715 L 129.15 36.695 L 129.15 36.695 Z  M 151.503 74.477 C 151.369 74.469 151.236 74.469 151.103 74.477 C 150.919 74.501 150.739 74.542 150.562 74.597 C 125.039 80.725 101.241 92.569 80.963 109.236 C 61.752 125.245 48.145 144.796 47.745 164.887 C 45.611 167.27 44.429 170.354 44.423 173.552 C 44.423 177.011 45.798 180.327 48.245 182.771 C 50.693 185.215 54.011 186.585 57.47 186.58 C 64.657 186.569 70.477 180.739 70.477 173.552 C 70.483 170.097 69.115 166.782 66.676 164.335 C 64.236 161.888 60.925 160.51 57.47 160.505 C 56.514 160.507 55.561 160.614 54.628 160.825 C 56.65 144.896 68.236 128.307 85.125 114.219 C 104.642 98.226 127.516 86.843 152.043 80.92 C 153.639 80.569 154.73 79.091 154.593 77.462 C 154.456 75.833 153.135 74.557 151.503 74.477 L 151.503 74.477 Z  M 70.517 136.371 C 69.19 136.351 67.983 137.137 67.465 138.358 C 66.946 139.58 67.219 140.994 68.156 141.935 C 88.087 162.546 112.901 177.755 136.234 185.679 C 159.087 193.443 180.699 194.364 195.127 185.279 C 196.903 186.146 198.854 186.598 200.83 186.6 C 204.289 186.6 207.606 185.224 210.049 182.777 C 212.493 180.33 213.863 177.011 213.858 173.552 C 213.858 170.097 212.485 166.784 210.042 164.341 C 207.599 161.898 204.285 160.525 200.83 160.525 C 197.372 160.52 194.053 161.89 191.606 164.334 C 189.158 166.777 187.783 170.094 187.783 173.552 C 187.791 176.093 188.543 178.577 189.944 180.696 C 178.038 187.02 159.107 186.56 138.315 179.496 C 116.063 171.951 92.009 157.203 72.839 137.412 C 72.238 136.765 71.4 136.39 70.517 136.371 L 70.517 136.371 L 70.517 136.371 Z  M 128.936 21.039 C 157.554 21.039 184.999 32.407 205.235 52.643 C 225.471 72.879 236.84 100.325 236.84 128.943 C 236.84 157.561 225.471 185.007 205.235 205.243 C 184.999 225.479 157.554 236.848 128.936 236.848 C 100.318 236.848 72.872 225.479 52.636 205.243 C 32.4 185.007 21.031 157.561 21.031 128.943 C 21.031 100.325 32.4 72.879 52.636 52.643 C 72.872 32.407 100.318 21.039 128.936 21.039 L 128.936 21.039 L 128.936 21.039 Z  M 129.447 0 C 95.116 0 62.19 13.638 37.914 37.914 C 13.638 62.19 0 95.116 0 129.447 C 0 163.779 13.638 196.704 37.914 220.98 C 62.19 245.256 95.116 258.895 129.447 258.895 C 163.779 258.895 196.704 245.256 220.98 220.98 C 245.256 196.704 258.895 163.779 258.895 129.447 C 258.895 95.116 245.256 62.19 220.98 37.914 C 196.704 13.638 163.779 0 129.447 0 L 129.447 0 L 129.447 0 Z " fill-rule="evenodd" fill="url(#_lgradient_2)"/></svg>
